src/standard/support.svg

<svg xmlns="http://www.w3.org/2000/svg" viewBox="0 0 36 36">
  <path d="M7.5 14.38h-1a2.12 2.12 0 0 0-2.12 2.12v5a2.12 2.12 0 0 0 2.12 2.12h1a2.12 2.12 0 0 0 2.12-2.12v-5a2.12 2.12 0 0 0-2.12-2.12Zm.88 7.12a.89.89 0 0 1-.88.88h-1a.89.89 0 0 1-.88-.88v-5a.89.89 0 0 1 .88-.88h1a.89.89 0 0 1 .88.88Zm21.12-7.12h-1a2.12 2.12 0 0 0-2.12 2.12v5a2.11 2.11 0 0 0 2 2.11V26A2.39 2.39 0 0 1 26 28.38h-5.46a2.62 2.62 0 1 0 0 1.24H26A3.62 3.62 0 0 0 29.62 26v-2.39a2.11 2.11 0 0 0 2-2.11v-5a2.12 2.12 0 0 0-2.12-2.12Zm-11.5 16a1.38 1.38 0 0 1 0-2.75 1.38 1.38 0 0 1 0 2.75Zm12.38-8.88a.89.89 0 0 1-.88.88h-1a.89.89 0 0 1-.88-.88v-5a.89.89 0 0 1 .88-.88h1a.89.89 0 0 1 .88.88ZM28 13.17a.63.63 0 0 0 1.21-.34c-3.31-11.21-19.11-11.2-22.4 0a.63.63 0 0 0 1.19.34 10.37 10.37 0 0 1 20 0Z"/>
</svg>

<svg id="a3791a2a-5fcf-4c9d-9063-089a1cfe567f" data-name="Icon" xmlns="http://www.w3.org/2000/svg" viewBox="0 0 36 36">
  <title>Support icon - Black</title>
<desc>help, call, phone, headset, person, chat, aid, people and audiences</desc>
<metadata><?xpacket begin="﻿" id="W5M0MpCehiHzreSzNTczkc9d"?>
<x:xmpmeta xmlns:x="adobe:ns:meta/" x:xmptk="Adobe XMP Core 8.0-c001 1.000000, 0000/00/00-00:00:00        ">
   <rdf:RDF xmlns:rdf="http://www.w3.org/1999/02/22-rdf-syntax-ns#">
      <rdf:Description rdf:about=""
            xmlns:xmp="http://ns.adobe.com/xap/1.0/"
            xmlns:dc="http://purl.org/dc/elements/1.1/"
            xmlns:cq="http://www.day.com/jcr/cq/1.0"
            xmlns:tiff="http://ns.adobe.com/tiff/1.0/">
         <xmp:rhcc-effective-on>2023-12-08T17:34:05.083Z</xmp:rhcc-effective-on>
         <xmp:rhcc-metadata-complete-moderator>pending</xmp:rhcc-metadata-complete-moderator>
         <xmp:rhcc-translation-id>TRA6f23c976-a554-4e0d-b434-e7ebe2e20bf0</xmp:rhcc-translation-id>
         <xmp:brand-content-type>Icon</xmp:brand-content-type>
         <xmp:CreateDate>2023-12-08T17:34:05.083Z</xmp:CreateDate>
         <xmp:rhcc-effective-on-set-on-upload>true</xmp:rhcc-effective-on-set-on-upload>
         <xmp:rhcc-metadata-complete-uploader>pending</xmp:rhcc-metadata-complete-uploader>
         <xmp:rhcc-file-last-modified>2023-12-08T17:34:16.898Z</xmp:rhcc-file-last-modified>
         <xmp:rhcc-audience>rhcc-audience:internal</xmp:rhcc-audience>
         <xmp:rhcc-rights-restricted>no</xmp:rhcc-rights-restricted>
         <xmp:brand-content-subtype>Icon</xmp:brand-content-subtype>
         <xmp:rhcc-derivative-id>DER6f23c976-a554-4e0d-b434-e7ebe2e20bf0</xmp:rhcc-derivative-id>
         <xmp:brand-logo-color>Black</xmp:brand-logo-color>
         <xmp:rhcc-notify-portal-subscribers-on-change>yes</xmp:rhcc-notify-portal-subscribers-on-change>
         <dc:format>image/svg+xml</dc:format>
         <dc:modified>2024-02-09T20:22:51.254Z</dc:modified>
         <dc:title>
            <rdf:Alt>
               <rdf:li xml:lang="x-default">Support icon - Black</rdf:li>
            </rdf:Alt>
         </dc:title>
         <dc:description>
            <rdf:Alt>
               <rdf:li xml:lang="x-default">help, call, phone, headset, person, chat, aid, people and audiences</rdf:li>
            </rdf:Alt>
         </dc:description>
         <cq:lastReplicationAction_scene7>Activate</cq:lastReplicationAction_scene7>
         <cq:lastReplicationAction_publish>Activate</cq:lastReplicationAction_publish>
         <cq:lastReplicated_publish>2024-02-09T22:02:49.955Z</cq:lastReplicated_publish>
         <cq:lastReplicatedBy>workflow-process-service</cq:lastReplicatedBy>
         <cq:lastReplicationAction>Activate</cq:lastReplicationAction>
         <cq:lastReplicatedBy_publish>workflow-process-service</cq:lastReplicatedBy_publish>
         <cq:isDelivered>true</cq:isDelivered>
         <cq:lastReplicated>2024-02-09T22:02:49.955Z</cq:lastReplicated>
         <cq:lastReplicatedBy_scene7>workflow-process-service</cq:lastReplicatedBy_scene7>
         <cq:lastReplicated_scene7>2024-02-09T22:02:49.955Z</cq:lastReplicated_scene7>
         <tiff:ImageLength>36</tiff:ImageLength>
         <tiff:ImageWidth>36</tiff:ImageWidth>
      </rdf:Description>
   </rdf:RDF>
</x:xmpmeta>
                                                                                                    
                                                                                                    
                                                                                                    
                                                                                                    
                                                                                                    
                                                                                                    
                                                                                                    
                                                                                                    
                                                                                                    
                                                                                                    
                                 
<?xpacket end="w"?></metadata>
<g>
    <path d="M7.5,14.38h-1A2.12,2.12,0,0,0,4.38,16.5v5A2.12,2.12,0,0,0,6.5,23.62h1A2.12,2.12,0,0,0,9.62,21.5v-5A2.12,2.12,0,0,0,7.5,14.38Zm.88,7.12a.89.89,0,0,1-.88.88h-1a.89.89,0,0,1-.88-.88v-5a.89.89,0,0,1,.88-.88h1a.89.89,0,0,1,.88.88Z"/>
    <path d="M29.5,14.38h-1a2.12,2.12,0,0,0-2.12,2.12v5a2.11,2.11,0,0,0,2,2.11V26A2.39,2.39,0,0,1,26,28.38H20.54a2.62,2.62,0,1,0,0,1.24H26A3.62,3.62,0,0,0,29.62,26V23.61a2.11,2.11,0,0,0,2-2.11v-5A2.12,2.12,0,0,0,29.5,14.38ZM18,30.38a1.38,1.38,0,0,1,0-2.75A1.38,1.38,0,0,1,18,30.38ZM30.38,21.5a.89.89,0,0,1-.88.88h-1a.89.89,0,0,1-.88-.88v-5a.89.89,0,0,1,.88-.88h1a.89.89,0,0,1,.88.88Z"/>
    <path d="M28,13.17a.63.63,0,0,0,1.21-.34C25.9,1.62,10.1,1.63,6.81,12.83A.63.63,0,0,0,8,13.17a10.37,10.37,0,0,1,20,0Z"/>
  </g>
</svg>
